unum/images/Improper-logo-03.svg

<?xml version="1.0" encoding="UTF-8"?>
<svg width="170px" height="81px" viewBox="0 0 170 81" version="1.1" xmlns="http://www.w3.org/2000/svg" xmlns:xlink="http://www.w3.org/1999/xlink">
    <!-- Generator: Sketch 43.2 (39069) - http://www.bohemiancoding.com/sketch -->
    <title>Improper-logo-03</title>
    <desc>Created with Sketch.</desc>
    <defs>
        <rect id="path-1" x="1.84741111e-13" y="0" width="170" height="80.6569343" rx="4"></rect>
        <polygon id="path-2" points="1.77547207e-15 27.2990219 1.77547207e-15 0.575518248 14.7051241 0.575518248 14.7051241 27.2990219 0 27.2990219"></polygon>
        <polygon id="path-4" points="0 44.1238102 79.2779489 44.1238102 79.2779489 -0.000496350365 0 -0.000496350365"></polygon>
    </defs>
    <g id="Pages" stroke="none" stroke-width="1" fill="none" fill-rule="evenodd">
        <g id="Web" transform="translate(-777.000000, -1920.000000)">
            <g id="Logo" transform="translate(370.000000, 566.000000)">
                <g id="Improper-Logo-Usage" transform="translate(8.000000, 1307.000000)">
                    <g id="Improper-logo-03" transform="translate(399.000000, 47.000000)">
                        <g id="Rectangle-7">
                            <use fill="#FFFFFF" fill-rule="evenodd" xlink:href="#path-1"></use>
                            <rect stroke="#DEE5EB" stroke-width="1" x="0.5" y="0.5" width="169" height="79.6569343" rx="4"></rect>
                        </g>
                        <g id="Page-1" transform="translate(48.394161, 16.131387)">
                            <path d="M40.2264672,44.123562 C34.2243504,44.123562 32.8730365,36.9165547 32.8730365,31.9691825 L32.8730365,17.4000584 L37.2942774,17.4000584 L37.2942774,31.4132701 C37.2942774,35.2562628 38.4644234,36.9351679 40.2264672,36.9351679 C41.9860292,36.9351679 43.1536934,35.2562628 43.1536934,31.4132701 L43.1536934,17.4000584 L47.5761752,17.4000584 L47.5761752,31.9691825 C47.5761752,36.9165547 46.2236204,44.123562 40.2264672,44.123562 Z" id="Fill-1" fill="#015294"></path>
                            <g id="Group-5" transform="translate(0.000000, 16.824540)">
                                <mask id="mask-3" fill="white">
                                    <use xlink:href="#path-2"></use>
                                </mask>
                                <g id="Clip-4"></g>
                                <path d="M7.35293431,27.2990219 C13.3525693,27.2990219 14.7051241,20.0920146 14.7051241,15.1446423 L14.7051241,0.575518248 L10.2826423,0.575518248 L10.2826423,14.5887299 C10.2826423,18.4317226 9.11373723,20.1106277 7.35293431,20.1106277 C5.59089051,20.1106277 4.4219854,18.4317226 4.4219854,14.5887299 L4.4219854,0.575518248 L-0.000496350365,0.575518248 L-0.000496350365,15.1446423 C-0.000496350365,20.0920146 1.35329927,27.2990219 7.35293431,27.2990219" id="Fill-3" fill="#015294" mask="url(#mask-3)"></path>
                            </g>
                            <path d="M23.7897007,16.3881241 C17.7888248,16.3881241 16.4350292,23.5938905 16.4350292,28.5400219 L16.4350292,43.1079051 L20.8575109,43.1079051 L20.8575109,29.0909708 C20.8575109,25.259146 22.0276569,23.5752774 23.7897007,23.5752774 C25.5505036,23.5752774 26.7194088,25.259146 26.7194088,29.0909708 L26.7194088,43.1079051 L31.1406496,43.1079051 L31.1406496,28.5400219 C31.1406496,23.5938905 29.7893358,16.3881241 23.7897007,16.3881241" id="Fill-6" fill="#015294"></path>
                            <path d="M60.8318321,20.5166423 C60.6407372,20.0463504 59.5140219,16.3882482 55.8943869,16.3882482 C52.2114672,16.3882482 49.3090584,19.7857664 49.3090584,28.0016058 L49.3090584,43.1080292 L53.6310292,43.1080292 L53.6310292,27.9879562 C53.6310292,25.3386861 54.3643869,23.309854 56.1500073,23.309854 C57.9381095,23.309854 58.6689854,25.3386861 58.6689854,27.9879562 L58.6689854,43.1080292 L62.993438,43.1080292 L62.993438,27.9879562 C62.993438,25.3386861 63.7243139,23.309854 65.5111752,23.309854 C67.2992774,23.309854 68.0313942,25.3386861 68.0313942,27.9879562 L68.0313942,43.1080292 L72.3546058,43.1080292 L72.3546058,28.0016058 C72.3546058,19.7857664 69.4509562,16.3882482 65.7667956,16.3882482 C62.1496423,16.3882482 61.0216861,20.0463504 60.8318321,20.5166423" id="Fill-8" fill="#015294"></path>
                            <path d="M23.7888321,13.138146 C25.7953285,13.138146 27.3737226,10.2816496 27.3737226,6.56646715 C27.3737226,2.8550073 25.7953285,-0.000248175182 23.7888321,-0.000248175182 C21.76,-0.000248175182 20.1530657,2.8550073 20.1530657,6.56646715 C20.1530657,10.2816496 21.76,13.138146 23.7888321,13.138146 Z" id="Fill-10" fill="#5E88A1"></path>
                            <path d="M40.2244818,13.138146 C42.232219,13.138146 43.8081314,10.2816496 43.8081314,6.56646715 C43.8081314,2.8550073 42.232219,-0.000248175182 40.2244818,-0.000248175182 C38.1968905,-0.000248175182 36.5874745,2.8550073 36.5874745,6.56646715 C36.5874745,10.2816496 38.1968905,13.138146 40.2244818,13.138146 Z" id="Fill-12" fill="#5E88A1"></path>
                            <path d="M60.8322044,13.138146 C62.8399416,13.138146 64.4183358,10.2816496 64.4183358,6.56646715 C64.4183358,2.8550073 62.8399416,-0.000248175182 60.8322044,-0.000248175182 C58.8046131,-0.000248175182 57.196438,2.8550073 57.196438,6.56646715 C57.196438,10.2816496 58.8046131,13.138146 60.8322044,13.138146 Z" id="Fill-14" fill="#5E88A1"></path>
                            <mask id="mask-5" fill="white">
                                <use xlink:href="#path-4"></use>
                            </mask>
                            <g id="Clip-16"></g>
                            <path d="M74.3727325,19.1266681 C73.757495,19.1266681 73.2286917,18.9025492 72.7863067,18.4543048 C72.3439217,18.0060603 72.1227325,17.4713977 72.1227325,16.8503009 C72.1227325,16.2213915 72.3453865,15.6847757 72.7907012,15.2404376 C73.236016,14.7960994 73.7721434,14.5739337 74.3990997,14.5739337 C75.0260559,14.5739337 75.5621834,14.7960994 76.0074981,15.2404376 C76.4528128,15.6847757 76.6754669,16.2194384 76.6754669,16.8444415 C76.6754669,17.4811634 76.4523246,18.0207088 76.0060333,18.4630938 C75.559742,18.9054789 75.0153138,19.1266681 74.3727325,19.1266681 Z M74.3727325,18.8014727 C75.0094544,18.8014727 75.5153087,18.5680766 75.8903106,18.1012774 C76.1969528,17.7204161 76.3502716,17.3024516 76.3502716,16.8473712 C76.3502716,16.396197 76.1969528,15.9801856 75.8903106,15.5993243 C75.5153087,15.1325251 75.0182434,14.899129 74.3990997,14.899129 C73.779956,14.899129 73.2828906,15.1325251 72.9078887,15.5993243 C72.6012466,15.9801856 72.4479278,16.3971736 72.4479278,16.8503009 C72.4479278,17.3815535 72.637379,17.8395568 73.0162872,18.2243243 C73.3971485,18.6090919 73.8492924,18.8014727 74.3727325,18.8014727 Z M73.6490997,18.0895587 L73.6490997,15.6286212 L74.4254669,15.6286212 C74.673515,15.6286212 74.8595483,15.6789136 74.9835723,15.7795001 C75.1075964,15.8800865 75.1696075,16.0309639 75.1696075,16.2321368 C75.1696075,16.380575 75.133475,16.5143628 75.0612091,16.633504 C74.9889431,16.7526452 74.8815223,16.8561598 74.7389434,16.9440509 L75.4801544,18.0895587 L75.0201934,18.0895587 L74.3551544,17.0641681 L74.0446075,17.0641681 L74.0446075,18.0895587 L73.6490997,18.0895587 Z M74.0182403,16.7565509 L74.1324981,16.7565509 C74.3492961,16.7565509 74.5118921,16.7160239 74.6202911,16.6349688 C74.7286901,16.5539137 74.7828887,16.4323329 74.7828887,16.2702227 C74.7828887,16.1413158 74.737479,16.0446371 74.6466583,15.9801837 C74.5558375,15.9157302 74.4196084,15.883504 74.2379669,15.883504 L74.0182403,15.883504 L74.0182403,16.7565509 Z" id="®" fill="#015294" mask="url(#mask-5)"></path>
                        </g>
                        <g id="Page-1" transform="translate(4.963504, 4.963504)">
                            <path d="M11.170365,22.3370073 C5.02058394,22.3370073 0,17.3524088 0,11.1678832 C0,5.01810219 5.02058394,0 11.170365,0 C17.3548905,0 22.3382482,5.01810219 22.3382482,11.1678832 C22.3382482,17.3524088 17.3548905,22.3370073 11.170365,22.3370073 L11.170365,22.3370073 Z" id="Path" fill="#FFFFFF"></path>
                            <path d="M6.79490636,17.3722628 L11.1678832,12.9992859 L15.5408601,17.3722628 L17.3722628,15.5408601 L12.9992859,11.1678832 L17.3722628,6.79490636 L15.5408601,4.96350365 L11.1678832,9.3364805 L6.79490636,4.96350365 L4.96350365,6.79490636 L9.3364805,11.1678832 L4.96350365,15.5408601 L6.79490636,17.3722628 Z M0,11.1678832 C0,5.01810219 5.02058394,0 11.170365,0 C17.3548905,0 22.3382482,5.01810219 22.3382482,11.1678832 C22.3382482,17.3524088 17.3548905,22.3370073 11.170365,22.3370073 C5.02058394,22.3370073 0,17.3524088 0,11.1678832 Z" id="Fill-1" fill="#E85656"></path>
                        </g>
                    </g>
                </g>
            </g>
        </g>
    </g>
</svg>

<svg width="170" height="81" viewBox="0 0 170 81" xmlns="http://www.w3.org/2000/svg" xmlns:xlink="http://www.w3.org/1999/xlink"><title>Improper-logo-03</title><defs><rect id="a" width="170" height="80.657" rx="4"/><path id="b" d="M0 27.299V.576h14.705v26.723H0z"/><path id="d" d="M0 44.124h79.278V0H0z"/></defs><g fill="none" fill-rule="evenodd"><use fill="#FFF" xlink:href="#a"/><rect stroke="#DEE5EB" x=".5" y=".5" width="169" height="79.657" rx="4"/><g transform="translate(48.394 16.131)"><path d="M40.226 44.124c-6.002 0-7.353-7.207-7.353-12.155V17.4h4.421v14.013c0 3.843 1.17 5.522 2.932 5.522 1.76 0 2.928-1.679 2.928-5.522V17.4h4.422v14.57c0 4.947-1.352 12.154-7.35 12.154z" fill="#015294"/><g transform="translate(0 16.825)"><mask id="c" fill="#fff"><use xlink:href="#b"/></mask><path d="M7.353 27.299c6 0 7.352-7.207 7.352-12.154V.575h-4.422V14.59c0 3.843-1.17 5.522-2.93 5.522-1.762 0-2.931-1.68-2.931-5.522V.576H0v14.569c0 4.947 1.353 12.154 7.353 12.154" fill="#015294" mask="url(#c)"/></g><path d="M23.79 16.388c-6.001 0-7.355 7.206-7.355 12.152v14.568h4.423V29.09c0-3.832 1.17-5.516 2.932-5.516 1.76 0 2.93 1.684 2.93 5.516v14.017h4.42V28.54c0-4.946-1.35-12.152-7.35-12.152m37.042 4.129c-.191-.47-1.318-4.129-4.938-4.129-3.683 0-6.585 3.398-6.585 11.614v15.106h4.322v-15.12c0-2.65.733-4.678 2.519-4.678 1.788 0 2.519 2.029 2.519 4.678v15.12h4.324v-15.12c0-2.65.731-4.678 2.518-4.678 1.788 0 2.52 2.029 2.52 4.678v15.12h4.324V28.002c0-8.216-2.904-11.614-6.588-11.614-3.617 0-4.745 3.658-4.935 4.129" fill="#015294"/><path d="M23.789 13.138c2.006 0 3.585-2.856 3.585-6.572C27.374 2.855 25.795 0 23.789 0c-2.029 0-3.636 2.855-3.636 6.566 0 3.716 1.607 6.572 3.636 6.572zm16.435 0c2.008 0 3.584-2.856 3.584-6.572C43.808 2.855 42.232 0 40.224 0c-2.027 0-3.637 2.855-3.637 6.566 0 3.716 1.61 6.572 3.637 6.572zm20.608 0c2.008 0 3.586-2.856 3.586-6.572C64.418 2.855 62.84 0 60.832 0c-2.027 0-3.636 2.855-3.636 6.566 0 3.716 1.609 6.572 3.636 6.572z" fill="#5E88A1"/><mask id="e" fill="#fff"><use xlink:href="#d"/></mask><path d="M74.373 19.127a2.15 2.15 0 0 1-1.587-.673 2.204 2.204 0 0 1-.663-1.604c0-.629.222-1.165.668-1.61a2.195 2.195 0 0 1 1.608-.666c.627 0 1.163.222 1.608.666.446.445.668.98.668 1.604 0 .637-.223 1.177-.669 1.62-.446.441-.99.663-1.633.663zm0-.326c.636 0 1.142-.233 1.517-.7.307-.38.46-.799.46-1.254 0-.45-.153-.867-.46-1.248-.375-.466-.872-.7-1.49-.7-.62 0-1.117.234-1.492.7a1.95 1.95 0 0 0-.46 1.251c0 .532.19.99.568 1.374.381.385.833.577 1.357.577zm-.724-.711v-2.461h.776c.249 0 .435.05.559.15.124.101.186.252.186.453a.759.759 0 0 1-.109.402.948.948 0 0 1-.322.31l.741 1.146h-.46l-.665-1.026h-.31v1.026h-.396zm.37-1.333h.113c.217 0 .38-.041.488-.122.109-.081.163-.203.163-.365 0-.129-.046-.225-.136-.29-.091-.064-.227-.096-.409-.096h-.22v.873z" fill="#015294" mask="url(#e)"/></g><path d="M16.134 27.3c-6.15 0-11.17-4.984-11.17-11.169 0-6.15 5.02-11.167 11.17-11.167 6.184 0 11.168 5.018 11.168 11.167 0 6.185-4.984 11.17-11.168 11.17z" fill="#FFF"/><path d="M11.758 22.336l4.373-4.373 4.373 4.373 1.832-1.832-4.373-4.373 4.373-4.373-1.832-1.831-4.373 4.373-4.373-4.373-1.831 1.831 4.373 4.373-4.373 4.373 1.831 1.832zM4.964 16.13c0-6.15 5.02-11.167 11.17-11.167 6.184 0 11.168 5.018 11.168 11.167 0 6.185-4.984 11.17-11.168 11.17-6.15 0-11.17-4.985-11.17-11.17z" fill="#E85656"/></g></svg>
